Numix-Light/16/status/indicator-keyboard-Es-2.svg

<?xml version="1.0" encoding="UTF-8" standalone="no"?>
<svg
   xmlns:dc="http://purl.org/dc/elements/1.1/"
   xmlns:cc="http://creativecommons.org/ns#"
   xmlns:rdf="http://www.w3.org/1999/02/22-rdf-syntax-ns#"
   xmlns:svg="http://www.w3.org/2000/svg"
   xmlns="http://www.w3.org/2000/svg"
   xmlns:sodipodi="http://sodipodi.sourceforge.net/DTD/sodipodi-0.dtd"
   xmlns:inkscape="http://www.inkscape.org/namespaces/inkscape"
   viewBox="0 0 16 16"
   id="svg2"
   version="1.1"
   inkscape:version="0.91 r13725"
   sodipodi:docname="indicator-keyboard-Es-2.svg">
  <metadata
     id="metadata14">
    <rdf:RDF>
      <cc:Work
         rdf:about="">
        <dc:format>image/svg+xml</dc:format>
        <dc:type
           rdf:resource="http://purl.org/dc/dcmitype/StillImage" />
      </cc:Work>
    </rdf:RDF>
  </metadata>
  <defs
     id="defs12" />
  <sodipodi:namedview
     pagecolor="#ffffff"
     bordercolor="#666666"
     borderopacity="1"
     objecttolerance="10"
     gridtolerance="10"
     guidetolerance="10"
     inkscape:pageopacity="0"
     inkscape:pageshadow="2"
     inkscape:window-width="640"
     inkscape:window-height="480"
     id="namedview10"
     showgrid="false"
     inkscape:zoom="14.75"
     inkscape:cx="8"
     inkscape:cy="8"
     inkscape:window-x="65"
     inkscape:window-y="24"
     inkscape:window-maximized="0"
     inkscape:current-layer="svg2" />
  <path
     style="fill:#353535;fill-opacity:1"
     d="M 1.5996094 0 C 0.71320937 2.9605947e-16 0 0.71320937 0 1.5996094 L 0 14.400391 C 2.9605947e-16 15.286791 0.71320937 16 1.5996094 16 L 14.400391 16 C 15.286791 16 16 15.286791 16 14.400391 L 16 1.5996094 C 16 0.71320937 15.286791 0 14.400391 0 L 1.5996094 0 z M 2.5800781 4.859375 L 6.1796875 4.859375 L 6.1796875 5.390625 L 3.1914062 5.390625 L 3.1914062 7.5585938 L 5.8554688 7.5585938 L 5.8554688 8.0800781 L 3.1914062 8.0800781 L 3.1914062 10.564453 L 6.4140625 10.564453 L 6.4140625 11.095703 L 2.5800781 11.095703 L 2.5800781 4.859375 z M 8.796875 6.3359375 C 9.114875 6.3359375 9.3760781 6.3620156 9.5800781 6.4160156 C 9.7900781 6.4700156 9.9355313 6.5185469 10.019531 6.5605469 L 9.8847656 7.0820312 C 9.8127656 7.0460313 9.689625 6.9975 9.515625 6.9375 C 9.347625 6.8775 9.0995312 6.8476563 8.7695312 6.8476562 C 8.6375312 6.8476562 8.510625 6.8625781 8.390625 6.8925781 C 8.276625 6.9165781 8.1759375 6.9595312 8.0859375 7.0195312 C 7.9959375 7.0735313 7.9231406 7.144375 7.8691406 7.234375 C 7.8151406 7.318375 7.7890625 7.4247812 7.7890625 7.5507812 C 7.7890625 7.6767813 7.811375 7.7830469 7.859375 7.8730469 C 7.907375 7.9630469 7.9764063 8.0451875 8.0664062 8.1171875 C 8.1624062 8.1831875 8.2781563 8.2466406 8.4101562 8.3066406 C 8.5481562 8.3666406 8.7029531 8.4319063 8.8769531 8.5039062 C 9.0569531 8.5759062 9.228625 8.6505156 9.390625 8.7285156 C 9.558625 8.8005156 9.7060312 8.8900469 9.8320312 8.9980469 C 9.9580312 9.1000469 10.058719 9.2269531 10.136719 9.3769531 C 10.214719 9.5209531 10.253906 9.7037813 10.253906 9.9257812 C 10.253906 10.345781 10.095344 10.664859 9.7773438 10.880859 C 9.4653437 11.096859 9.0362344 11.203125 8.4902344 11.203125 C 8.0822344 11.203125 7.7706875 11.167703 7.5546875 11.095703 C 7.3386875 11.029703 7.1950469 10.979359 7.1230469 10.943359 L 7.2753906 10.412109 C 7.2933906 10.424109 7.3325781 10.444609 7.3925781 10.474609 C 7.4525781 10.498609 7.5327656 10.528453 7.6347656 10.564453 C 7.7367656 10.594453 7.8580937 10.622484 7.9960938 10.646484 C 8.1400937 10.670484 8.3042344 10.681641 8.4902344 10.681641 C 8.8262344 10.681641 9.1023594 10.627531 9.3183594 10.519531 C 9.5403594 10.405531 9.6503906 10.217125 9.6503906 9.953125 C 9.6503906 9.827125 9.6298906 9.7189062 9.5878906 9.6289062 C 9.5518906 9.5389062 9.4884375 9.4587188 9.3984375 9.3867188 C 9.3084375 9.3147188 9.1890625 9.2456875 9.0390625 9.1796875 C 8.8950625 9.1136875 8.716 9.0353125 8.5 8.9453125 C 8.326 8.8733125 8.1599062 8.8005156 8.0039062 8.7285156 C 7.8479062 8.6505156 7.7098438 8.56475 7.5898438 8.46875 C 7.4698438 8.36675 7.3747344 8.2454219 7.3027344 8.1074219 C 7.2307344 7.9694219 7.1933594 7.8015156 7.1933594 7.6035156 C 7.1933594 7.2255156 7.3351875 6.9195469 7.6171875 6.6855469 C 7.9051875 6.4515469 8.298875 6.3359375 8.796875 6.3359375 z M 12.091797 8.7539062 C 12.485697 8.7539062 12.781569 8.851875 12.980469 9.046875 C 13.179369 9.237975 13.279297 9.5044563 13.279297 9.8476562 C 13.279297 9.9997563 13.251866 10.14475 13.197266 10.28125 C 13.142666 10.41385 13.068209 10.543169 12.974609 10.667969 C 12.884909 10.792769 12.783016 10.912297 12.666016 11.029297 C 12.549016 11.146297 12.429494 11.263859 12.308594 11.380859 C 12.207194 11.478359 12.107266 11.578288 12.009766 11.679688 C 11.916166 11.777188 11.829953 11.877116 11.751953 11.978516 C 11.677853 12.076016 11.619066 12.172031 11.572266 12.269531 C 11.529366 12.363131 11.507812 12.457181 11.507812 12.550781 L 11.507812 12.5625 L 13.419922 12.5625 L 13.419922 12.896484 L 11.085938 12.896484 C 11.085938 12.888684 11.084011 12.874969 11.080078 12.855469 L 11.080078 12.755859 C 11.080078 12.572559 11.113387 12.402094 11.179688 12.246094 C 11.245988 12.086194 11.330241 11.937275 11.431641 11.796875 C 11.536941 11.656475 11.650591 11.525197 11.775391 11.404297 C 11.904091 11.283397 12.027531 11.165834 12.144531 11.052734 C 12.242031 10.959134 12.334122 10.869003 12.419922 10.783203 C 12.509622 10.693503 12.587997 10.603366 12.654297 10.509766 C 12.720597 10.416166 12.771547 10.316237 12.810547 10.210938 C 12.849547 10.105638 12.869141 9.9900344 12.869141 9.8652344 C 12.869141 9.5922344 12.796638 9.39825 12.648438 9.28125 C 12.504137 9.16035 12.319956 9.0996094 12.097656 9.0996094 C 11.972856 9.0996094 11.861172 9.1152844 11.763672 9.1464844 C 11.666172 9.1776844 11.581912 9.2149125 11.507812 9.2578125 C 11.437612 9.2968125 11.376872 9.3379594 11.326172 9.3808594 C 11.275472 9.4237594 11.238244 9.4570688 11.214844 9.4804688 L 11.015625 9.2167969 C 11.039025 9.1894969 11.080172 9.1503094 11.138672 9.0996094 C 11.201072 9.0450094 11.277487 8.9921062 11.367188 8.9414062 C 11.460788 8.8907063 11.5666 8.8476 11.6875 8.8125 C 11.8084 8.7735 11.943597 8.7539063 12.091797 8.7539062 z "
     id="path4" />
</svg>

<svg xmlns="http://www.w3.org/2000/svg" viewBox="0 0 16 16">
 <path d="m 1.6 0 c -0.886 0 -1.6 0.713 -1.6 1.6 l 0 12.801 c 0 0.886 0.713 1.6 1.6 1.6 l 12.801 0 c 0.886 0 1.6 -0.713 1.6 -1.6 l 0 -12.801 c 0 -0.886 -0.713 -1.6 -1.6 -1.6 l -12.801 0 z m 0.98 4.859 l 3.6 0 l 0 0.531 l -2.988 0 l 0 2.168 l 2.664 0 l 0 0.521 l -2.664 0 l 0 2.484 l 3.223 0 l 0 0.531 l -3.834 0 l 0 -6.236 z m 6.217 1.477 c 0.318 0 0.579 0.026 0.783 0.08 c 0.21 0.054 0.355 0.103 0.439 0.145 l -0.135 0.521 c -0.072 -0.036 -0.195 -0.085 -0.369 -0.145 c -0.168 -0.06 -0.416 -0.09 -0.746 -0.09 c -0.132 0 -0.259 0.015 -0.379 0.045 c -0.114 0.024 -0.215 0.067 -0.305 0.127 c -0.09 0.054 -0.163 0.125 -0.217 0.215 c -0.054 0.084 -0.08 0.19 -0.08 0.316 c 0 0.126 0.022 0.232 0.07 0.322 c 0.048 0.09 0.117 0.172 0.207 0.244 c 0.096 0.066 0.212 0.129 0.344 0.189 c 0.138 0.06 0.293 0.125 0.467 0.197 c 0.18 0.072 0.352 0.147 0.514 0.225 c 0.168 0.072 0.315 0.162 0.441 0.27 c 0.126 0.102 0.227 0.229 0.305 0.379 c 0.078 0.144 0.117 0.327 0.117 0.549 c 0 0.42 -0.159 0.739 -0.477 0.955 c -0.312 0.216 -0.741 0.322 -1.287 0.322 c -0.408 0 -0.72 -0.035 -0.936 -0.107 c -0.216 -0.066 -0.36 -0.116 -0.432 -0.152 l 0.152 -0.531 c 0.018 0.012 0.057 0.033 0.117 0.063 c 0.06 0.024 0.14 0.054 0.242 0.09 c 0.102 0.03 0.223 0.058 0.361 0.082 c 0.144 0.024 0.308 0.035 0.494 0.035 c 0.336 0 0.612 -0.054 0.828 -0.162 c 0.222 -0.114 0.332 -0.302 0.332 -0.566 c 0 -0.126 -0.021 -0.234 -0.063 -0.324 c -0.036 -0.09 -0.099 -0.17 -0.189 -0.242 c -0.09 -0.072 -0.209 -0.141 -0.359 -0.207 c -0.144 -0.066 -0.323 -0.144 -0.539 -0.234 c -0.174 -0.072 -0.34 -0.145 -0.496 -0.217 c -0.156 -0.078 -0.294 -0.164 -0.414 -0.26 c -0.12 -0.102 -0.215 -0.223 -0.287 -0.361 c -0.072 -0.138 -0.109 -0.306 -0.109 -0.504 c 0 -0.378 0.142 -0.684 0.424 -0.918 c 0.288 -0.234 0.682 -0.35 1.18 -0.35 z m 3.295 2.418 c 0.394 0 0.69 0.098 0.889 0.293 c 0.199 0.191 0.299 0.458 0.299 0.801 c 0 0.152 -0.027 0.297 -0.082 0.434 c -0.055 0.133 -0.129 0.262 -0.223 0.387 c -0.09 0.125 -0.192 0.244 -0.309 0.361 c -0.117 0.117 -0.237 0.235 -0.357 0.352 c -0.101 0.098 -0.201 0.197 -0.299 0.299 c -0.094 0.098 -0.18 0.197 -0.258 0.299 c -0.074 0.097 -0.133 0.194 -0.18 0.291 c -0.043 0.094 -0.064 0.188 -0.064 0.281 l 0 0.012 l 1.912 0 l 0 0.334 l -2.334 0 c 0 -0.008 -0.002 -0.022 -0.006 -0.041 l 0 -0.1 c 0 -0.183 0.033 -0.354 0.1 -0.51 c 0.066 -0.16 0.151 -0.309 0.252 -0.449 c 0.105 -0.14 0.219 -0.272 0.344 -0.393 c 0.129 -0.121 0.252 -0.238 0.369 -0.352 c 0.098 -0.094 0.19 -0.184 0.275 -0.27 c 0.09 -0.09 0.168 -0.18 0.234 -0.273 c 0.066 -0.094 0.117 -0.194 0.156 -0.299 c 0.039 -0.105 0.059 -0.221 0.059 -0.346 c 0 -0.273 -0.073 -0.467 -0.221 -0.584 c -0.144 -0.121 -0.328 -0.182 -0.551 -0.182 c -0.125 0 -0.236 0.016 -0.334 0.047 c -0.098 0.031 -0.182 0.068 -0.256 0.111 c -0.07 0.039 -0.131 0.08 -0.182 0.123 c -0.051 0.043 -0.088 0.076 -0.111 0.1 l -0.199 -0.264 c 0.023 -0.027 0.065 -0.066 0.123 -0.117 c 0.062 -0.055 0.139 -0.108 0.229 -0.158 c 0.094 -0.051 0.199 -0.094 0.32 -0.129 c 0.121 -0.039 0.256 -0.059 0.404 -0.059 z" style="fill:#353535;fill-opacity:1"/>
</svg>
